icon-themes/sifr_svg/cmd/lc_diaspeed.svg

<svg viewBox="0 0 24 24" xmlns="http://www.w3.org/2000/svg"><path d="m1 2v3h2v13h5l-3 3v1h2l2.0527344-2.052734c-.686607-1.202475-1.0493464-2.562577-1.0527344-3.947266h-3v-11h14v3.5898438c.72014.2920604 1.393884.68749 2 1.1738281v-4.7636719h2v-3zm6 4v2h9 1v-2zm0 3v5h1.265625c.08603-.340081.1943378-.674136.3242188-1h-.5898438v-3h1v2.128906c.281418-.504793.616709-.977605 1-1.410156v-1.71875zm5 0v.0839844c.048531-.0285092.097362-.0565058.146484-.0839844zm4 0c-3.865993 0-7 3.134007-7 7s3.134007 7 7 7 7-3.134007 7-7-3.134007-7-7-7zm0 2c2.761424 0 5 2.238576 5 5s-2.238576 5-5 5c-1.634629 0-3.072047-.796825-3.984375-2.009766l3.984375-2.390625v2.400391l5-3-5-3v2.400391l-3.984375-2.390625c.912328-1.212941 2.349746-2.009766 3.984375-2.009766zm-4 2.027344v5.945312c-.620357-.832868-1-1.854311-1-2.972656s.379643-2.139788 1-2.972656z" fill="#555753"/></svg>

<svg xmlns="http://www.w3.org/2000/svg" viewBox="0 0 24 24">
  <path
     style="fill:#555753"
     d="M 1 2 L 1 5 L 3 5 L 3 18 L 8 18 L 5 21 L 5 22 L 7 22 L 9.0527344 19.947266 C 8.3661274 18.744791 8.003388 17.384689 8 16 L 5 16 L 5 5 L 19 5 L 19 8.5898438 C 19.72014 8.8819042 20.393884 9.2773338 21 9.7636719 L 21 5 L 23 5 L 23 2 L 1 2 z M 7 6 L 7 8 L 16 8 L 17 8 L 17 6 L 7 6 z M 7 9 L 7 14 L 8.265625 14 C 8.351655 13.659919 8.4599628 13.325864 8.5898438 13 L 8 13 L 8 10 L 9 10 L 9 12.128906 C 9.281418 11.624113 9.616709 11.151301 10 10.71875 L 10 9 L 7 9 z M 12 9 L 12 9.0839844 C 12.048531 9.0554752 12.097362 9.0274786 12.146484 9 L 12 9 z M 16 9 C 12.134007 9 9 12.134007 9 16 C 9 19.865993 12.134007 23 16 23 C 19.865993 23 23 19.865993 23 16 C 23 12.134007 19.865993 9 16 9 z M 16 11 C 18.761424 11 21 13.238576 21 16 C 21 18.761424 18.761424 21 16 21 C 14.365371 21 12.927953 20.203175 12.015625 18.990234 L 16 16.599609 L 16 19 L 21 16 L 16 13 L 16 15.400391 L 12.015625 13.009766 C 12.927953 11.796825 14.365371 11 16 11 z M 12 13.027344 L 12 18.972656 C 11.379643 18.139788 11 17.118345 11 16 C 11 14.881655 11.379643 13.860212 12 13.027344 z "
     />
</svg>
